X:52
T:Jump At the Sun
C:John Kirkpatrick
R:jig
M:6/8
L:1/8
Z:Transcribed to abc by Mary Lou Knack
K:Em
EGB ^A2B | EGB ^A2B | eBB eBB | BAG FGF |
EGB ^A2B | EGB ^A2B | eBB Bc=A | GFG E3 ::
e2B gfe | f2B agf | gfe gfe | f2Bc2B |
e2B gfe | f2B agf | gfe BcA | GFG E3 :|
